images/logo-black.svg

<svg width="100" height="33" viewBox="0 0 100 33" fill="none" xmlns="http://www.w3.org/2000/svg">
<path d="M32.5424 18.4434V23.0834H29.2456V9.40771H34.7027C35.7484 9.40771 36.672 9.60183 37.4735 9.99006C38.2813 10.372 38.9044 10.9199 39.3427 11.6338C39.7873 12.3413 40.0096 13.146 40.0096 14.0477C40.0096 15.3814 39.5305 16.4491 38.5725 17.2506C37.6207 18.0458 36.312 18.4434 34.6464 18.4434H32.5424ZM32.5424 15.898H34.7027C35.3414 15.898 35.8267 15.7383 36.1586 15.419C36.4967 15.0996 36.6658 14.6488 36.6658 14.0665C36.6658 13.4278 36.4936 12.9174 36.1492 12.5355C35.8048 12.1535 35.3352 11.9594 34.7403 11.9531H32.5424V15.898Z" fill="black"/>
<path d="M46.2797 18.2556H44.4951V23.0834H41.1983V9.40771H46.5803C48.2021 9.40771 49.4701 9.76777 50.3843 10.4879C51.2985 11.208 51.7556 12.2255 51.7556 13.5405C51.7556 14.4923 51.5615 15.2812 51.1733 15.9074C50.7913 16.5336 50.1902 17.0408 49.3699 17.429L52.2252 22.9425V23.0834H48.6936L46.2797 18.2556ZM44.4951 15.7102H46.5803C47.2064 15.7102 47.6761 15.5474 47.9892 15.2218C48.3085 14.8899 48.4682 14.4296 48.4682 13.841C48.4682 13.2524 48.3085 12.7922 47.9892 12.4603C47.6698 12.1222 47.2002 11.9531 46.5803 11.9531H44.4951V15.7102Z" fill="black"/>
<path d="M57.0673 23.0834H53.7799V9.40771H57.0673V23.0834Z" fill="black"/>
<path d="M64.2662 9.40771L67.3188 18.9224L70.362 9.40771H74.7014V23.0834H71.3952V19.8899L71.7146 13.3526L68.4084 23.0834H66.2293L62.9137 13.3432L63.233 19.8899V23.0834H59.9362V9.40771H64.2662Z" fill="black"/>
<path d="M87.0621 17.6544H77.1529V15.1748H87.0621V17.6544Z" fill="black"/>
<path d="M99.9999 9.40771V18.3589C99.9999 19.3733 99.7839 20.2531 99.3518 20.9982C98.9197 21.7371 98.2998 22.3007 97.4921 22.6889C96.6843 23.0771 95.7294 23.2712 94.6273 23.2712C92.9617 23.2712 91.6499 22.8392 90.6918 21.9751C89.7338 21.1109 89.2453 19.9275 89.2266 18.4246V9.40771H92.5422V18.4904C92.5797 19.9869 93.2748 20.7352 94.6273 20.7352C95.3099 20.7352 95.8264 20.5474 96.1771 20.1717C96.5278 19.796 96.7031 19.1854 96.7031 18.3401V9.40771H99.9999Z" fill="black"/>
<path fill-rule="evenodd" clip-rule="evenodd" d="M10.2593 32.7014C17.9537 23.7245 20.5185 14.4271 20.5185 10.5799C20.1979 3.52662 14.7477 0 10.2593 0L10.2593 5.77083C12.7382 5.77083 14.7477 7.78037 14.7477 10.2593C14.7477 12.7381 12.7382 14.7477 10.2593 14.7477L10.2593 32.7014Z" fill="#A6A6A6"/>
<path fill-rule="evenodd" clip-rule="evenodd" d="M10.2592 32.7014C2.56481 23.7245 0 14.4271 0 10.5799C0.320602 3.52662 5.77083 0 10.2592 0L10.2593 5.77083C7.78037 5.77083 5.77083 7.78037 5.77083 10.2593C5.77083 12.7381 7.78037 14.7477 10.2593 14.7477L10.2592 32.7014Z" fill="black"/>
<path fill-rule="evenodd" clip-rule="evenodd" d="M10.2593 20.5185C15.9253 20.5185 20.5185 15.9253 20.5185 10.2593C20.5185 4.59323 15.9253 0 10.2593 0C4.59323 0 0 4.59323 0 10.2593C0 15.9253 4.59323 20.5185 10.2593 20.5185ZM10.2593 14.7477C12.7381 14.7477 14.7477 12.7381 14.7477 10.2593C14.7477 7.78037 12.7381 5.77083 10.2593 5.77083C7.78037 5.77083 5.77083 7.78037 5.77083 10.2593C5.77083 12.7381 7.78037 14.7477 10.2593 14.7477Z" fill="black"/>
</svg>

<svg viewBox="0 0 100 33" xmlns="http://www.w3.org/2000/svg">
<path d="m32.542 18.443v4.64h-3.2968v-13.676h5.4571c1.0457 0 1.9693 0.19412 2.7708 0.58235 0.8078 0.38194 1.4309 0.92984 1.8692 1.6437 0.4446 0.7075 0.6669 1.5122 0.6669 2.4139 0 1.3337-0.4791 2.4014-1.4371 3.2029-0.9518 0.7952-2.2605 1.1928-3.9261 1.1928h-2.104zm0-2.5454h2.1603c0.6387 0 1.124-0.1597 1.4559-0.479 0.3381-0.3194 0.5072-0.7702 0.5072-1.3525 0-0.6387-0.1722-1.1491-0.5166-1.531-0.3444-0.382-0.814-0.5761-1.4089-0.5824h-2.1979v3.9449z"/>
<path d="m46.28 18.256h-1.7846v4.8278h-3.2968v-13.676h5.382c1.6218 0 2.8898 0.36006 3.804 1.0802 0.9142 0.7201 1.3713 1.7376 1.3713 3.0526 0 0.9518-0.1941 1.7407-0.5823 2.3669-0.382 0.6262-0.9831 1.1334-1.8034 1.5216l2.8553 5.5135v0.1409h-3.5316l-2.4139-4.8278zm-1.7846-2.5454h2.0852c0.6261 0 1.0958-0.1628 1.4089-0.4884 0.3193-0.3319 0.479-0.7922 0.479-1.3808s-0.1597-1.0488-0.479-1.3807c-0.3194-0.3381-0.789-0.5072-1.4089-0.5072h-2.0852v3.7571z"/>
<path d="m57.067 23.083h-3.2874v-13.676h3.2874v13.676z"/>
<path d="m64.266 9.4077l3.0526 9.5147 3.0432-9.5147h4.3394v13.676h-3.3062v-3.1935l0.3194-6.5373-3.3062 9.7308h-2.1791l-3.3156-9.7402 0.3193 6.5467v3.1935h-3.2968v-13.676h4.33z"/>
<path d="m87.062 17.654h-9.9092v-2.4796h9.9092v2.4796z"/>
<path d="m100 9.4077v8.9512c0 1.0144-0.216 1.8942-0.6481 2.6393-0.4321 0.7389-1.052 1.3025-1.8597 1.6907-0.8078 0.3882-1.7627 0.5823-2.8648 0.5823-1.6656 0-2.9774-0.432-3.9355-1.2961-0.958-0.8642-1.4465-2.0476-1.4652-3.5505v-9.0169h3.3156v9.0827c0.0375 1.4965 0.7326 2.2448 2.0851 2.2448 0.6826 0 1.1991-0.1878 1.5498-0.5635s0.526-0.9863 0.526-1.8316v-8.9324h3.2968z"/>
<path d="m10.259 32.701c7.6944-8.9769 10.259-18.274 10.259-22.122-0.3206-7.0533-5.7708-10.58-10.259-10.58v5.7708c2.4789 0 4.4884 2.0095 4.4884 4.4885 0 2.4788-2.0095 4.4884-4.4884 4.4884v17.954z" clip-rule="evenodd" fill="#A6A6A6" fill-rule="evenodd"/>
<path d="m10.259 32.701c-7.6944-8.9769-10.259-18.274-10.259-22.122 0.3206-7.0533 5.7708-10.58 10.259-10.58l1e-4 5.7708c-2.4789 0-4.4885 2.0095-4.4885 4.4885 0 2.4788 2.0095 4.4884 4.4885 4.4884l-1e-4 17.954z" clip-rule="evenodd" fill-rule="evenodd"/>
<path d="m10.259 20.518c5.666 0 10.259-4.5932 10.259-10.259 0-5.6661-4.5932-10.259-10.259-10.259-5.6661 0-10.259 4.5932-10.259 10.259 0 5.666 4.5932 10.259 10.259 10.259zm0-5.7708c2.4788 0 4.4884-2.0096 4.4884-4.4884 0-2.4789-2.0096-4.4885-4.4884-4.4885-2.4789 0-4.4885 2.0095-4.4885 4.4885 0 2.4788 2.0095 4.4884 4.4885 4.4884z" clip-rule="evenodd" fill-rule="evenodd"/>
</svg>
